files/icons/body.svg

<svg width="65" height="65" viewBox="0 0 65 65" fill="none" xmlns="http://www.w3.org/2000/svg">
<path d="M64.9995 12.0943C65.0332 11.0009 63.3174 11.0009 63.2837 12.0943C63.0987 19.1419 59.7007 22.5732 52.9048 23.1788C46.1594 23.7675 34.5862 25.3317 33.3582 16.3666C33.3414 16.1984 33.2741 16.0806 33.19 15.9797C33.3246 14.3482 33.2573 12.6661 33.2741 11.1355C33.2741 10.0422 31.5751 10.0254 31.5583 11.1355C31.5415 14.079 31.9788 18.2504 29.7584 20.5043C27.1174 23.1788 21.8859 23.7002 18.3197 23.8011C15.0564 23.902 10.6491 24.087 7.739 22.6069C3.9878 20.6894 1.90193 16.2152 1.71689 12.212C1.66642 11.1187 -0.049373 11.1019 0.0010916 12.212C0.20295 16.232 1.85146 19.9997 4.89616 22.6237C6.1746 26.6101 6.56149 30.731 7.52032 34.7847C8.37822 38.4178 9.72394 41.7987 10.1277 45.5328C10.4641 48.6781 10.7164 51.9917 10.4641 55.1539C10.2118 58.2152 9.00061 61.1251 8.63054 64.1863C8.49597 65.2796 10.2118 65.2628 10.3463 64.1863C10.7332 60.9905 12.0117 57.9965 12.1967 54.767C12.3817 51.3525 12.1462 47.8371 11.7257 44.4563C11.3556 41.4791 10.3463 38.7206 9.57255 35.8275C8.52961 31.9757 8.10907 28.0061 7.1166 24.1543C10.4473 25.8027 14.7872 25.6345 18.3366 25.5336C22.4578 25.399 27.908 24.7767 30.9864 21.7322C31.6592 21.0594 32.1302 20.3025 32.4835 19.4615C35.5955 26.711 46.5968 25.5504 53.5609 24.8608C55.3608 24.6757 56.9084 24.2889 58.2709 23.717C57.1102 26.711 56.7738 29.8564 56.1514 33.0858C55.4617 36.719 53.9814 40.1671 53.4431 43.8339C52.9385 47.2821 52.7534 50.8648 52.8712 54.3297C53.0058 57.7106 54.2842 60.8559 54.6711 64.1863C54.8057 65.2628 56.5046 65.2796 56.3869 64.1863C56.0505 61.2596 54.9402 58.4843 54.6374 55.5576C54.301 52.2945 54.6038 48.7959 54.9402 45.5496C55.3103 42.0846 56.5046 38.9561 57.3289 35.592C58.4391 31.1011 58.4223 26.5091 60.7437 22.3714C60.7773 22.3041 60.7941 22.2368 60.8109 22.1695C63.4856 20.0166 64.8818 16.6525 64.9995 12.0943Z" fill="#2B3541"/>
<path d="M47.135 32.1775C45.6378 34.8015 34.5188 34.3137 33.2067 31.757C33.1563 31.6561 33.089 31.6057 33.0385 31.5384C33.3918 29.9405 33.1899 28.0061 33.0722 26.0718C33.0049 24.9785 31.3059 24.9785 31.3564 26.0718C31.575 29.7891 32.3657 33.2036 27.4033 33.6409C24.4427 33.91 19.7159 34.6838 17.4449 32.3962C16.6712 31.6057 15.46 32.8167 16.2338 33.6073C19.2112 36.6181 25.166 35.9116 28.9509 35.1715C30.5826 34.852 31.6087 34.2128 32.2479 33.3381C34.031 35.3902 37.7822 35.3229 40.2213 35.3734C42.8287 35.4238 47.0845 35.7098 48.5984 33.0354C49.1704 32.0766 47.6901 31.2188 47.135 32.1775Z" fill="#2B3541"/>
<path d="M31.1042 44.0021C30.465 45.045 28.7828 45.4487 27.6894 45.5159C24.8466 45.701 20.2038 46.1046 20.0356 42.1687C19.9852 41.0754 18.2862 41.0586 18.3198 42.1687C18.4039 43.9853 18.7067 45.6505 20.4898 46.4747C22.7102 47.5175 25.3344 47.3662 27.6894 47.2148C29.4052 47.1139 31.3565 47.1643 32.349 45.4991C32.349 45.4823 32.3658 45.4655 32.3658 45.4655C32.6349 45.8523 33.005 46.1719 33.5265 46.441C35.4778 47.4166 38.1188 47.2821 40.2383 47.3325C43.6867 47.4334 46.1258 45.9701 46.6473 42.3538C46.7987 41.2773 45.1502 40.8063 44.9988 41.8996C44.5782 44.8263 42.8456 45.701 40.2383 45.6169C37.4795 45.5496 34.1321 45.9869 33.0723 42.8079C33.0723 42.8079 33.0723 42.8079 33.0723 42.7911C33.1564 41.6473 33.106 40.4867 33.0387 39.528C32.9714 38.4347 31.2724 38.4178 31.3229 39.528C31.3733 40.4026 31.407 41.2436 31.3229 42.1183C31.306 42.6397 31.3565 43.5984 31.1042 44.0021Z" fill="#2B3541"/>
<path d="M55.6804 20.5884C56.7738 20.5884 56.7906 18.8727 55.6804 18.8727C54.587 18.8727 54.587 20.5884 55.6804 20.5884Z" fill="#2B3541"/>
<path d="M9.45481 20.5884C10.5482 20.5884 10.565 18.8727 9.45481 18.8727C8.36142 18.8727 8.36142 20.5884 9.45481 20.5884Z" fill="#2B3541"/>
<path d="M45.0325 53.6568C45.0157 55.3557 44.9988 56.4322 43.2158 56.9368C42.2906 57.1891 41.3822 57.1554 40.4402 57.1218C37.8833 57.0209 34.0144 57.6432 33.4256 54.296C33.5434 53.0513 33.392 51.7057 33.3583 50.6629C33.3247 49.5695 31.6089 49.5527 31.6425 50.6629C31.693 52.1598 31.878 53.5223 31.222 54.9015C30.6164 56.1967 29.523 56.3817 28.1773 56.6172C26.7306 56.8527 25.1494 56.8527 23.6859 56.7854C21.2468 56.6676 20.8263 55.5407 20.473 53.4382C20.288 52.3617 18.6395 52.8158 18.8245 53.8923C19.0768 55.4902 19.346 57.2227 20.9104 57.9964C22.8785 58.9888 26.0578 58.6356 28.1437 58.3328C29.523 58.131 31.4911 57.7946 32.5004 56.6677C34.1489 58.972 37.8329 58.7197 40.6589 58.8375C42.0382 58.8879 43.9223 58.8206 45.167 58.131C46.7819 57.2395 46.6978 55.2716 46.7146 53.64C46.7651 52.5467 45.0493 52.5467 45.0325 53.6568Z" fill="#2B3541"/>
<path d="M16.0827 1.98521C20.4731 1.98521 24.2579 1.48061 27.8241 4.40732C28.6652 5.09695 29.8932 3.90271 29.0353 3.19627C25.0149 -0.0836695 21.1123 0.269554 16.0827 0.286374C14.9724 0.286374 14.9724 1.98521 16.0827 1.98521Z" fill="#2B3541"/>
<path d="M36.924 4.40738C39.851 1.262 44.9311 1.86753 48.901 1.71615C49.9944 1.68251 50.0112 -0.0331521 48.901 0.000488292C44.3928 0.16869 39.0604 -0.403196 35.7129 3.1795C34.9727 4.00369 36.1839 5.21475 36.924 4.40738Z" fill="#2B3541"/>
</svg>

<svg xmlns="http://www.w3.org/2000/svg" width="65" height="65" fill="none" viewBox="0 0 65 65"><path fill="#2b3541" d="M65 12.094c.033-1.093-1.683-1.093-1.716 0-.185 7.048-3.583 10.48-10.38 11.085-6.745.588-18.318 2.153-19.546-6.812a.7.7 0 0 0-.168-.387c.135-1.632.067-3.314.084-4.844 0-1.094-1.699-1.11-1.716 0-.017 2.943.42 7.114-1.8 9.368-2.64 2.675-7.872 3.196-11.438 3.297-3.264.101-7.67.286-10.581-1.194-3.751-1.918-5.837-6.392-6.022-10.395-.05-1.093-1.766-1.11-1.716 0 .202 4.02 1.85 7.788 4.895 10.412 1.279 3.986 1.665 8.107 2.624 12.16.858 3.634 2.204 7.015 2.608 10.749.336 3.145.588 6.459.336 9.62-.252 3.062-1.463 5.972-1.833 9.033-.135 1.094 1.58 1.077 1.715 0 .387-3.196 1.666-6.19 1.85-9.419.186-3.415-.05-6.93-.47-10.31-.37-2.978-1.38-5.736-2.153-8.63-1.043-3.851-1.464-7.82-2.456-11.673 3.33 1.649 7.67 1.48 11.22 1.38 4.12-.135 9.571-.757 12.65-3.802.672-.673 1.143-1.43 1.497-2.27 3.111 7.249 14.113 6.088 21.077 5.399 1.8-.185 3.347-.572 4.71-1.144-1.16 2.994-1.497 6.14-2.12 9.369-.69 3.633-2.17 7.081-2.708 10.748a59.3 59.3 0 0 0-.572 10.496c.135 3.38 1.413 6.526 1.8 9.856.135 1.077 1.834 1.094 1.716 0-.337-2.926-1.447-5.702-1.75-8.628-.336-3.264-.033-6.762.303-10.008.37-3.465 1.565-6.594 2.389-9.958 1.11-4.49 1.093-9.083 3.415-13.22a1 1 0 0 0 .067-.203c2.675-2.152 4.07-5.517 4.188-10.075"/><path fill="#2b3541" d="M47.135 32.178c-1.497 2.624-12.616 2.136-13.928-.421-.05-.1-.118-.151-.169-.219.354-1.598.152-3.532.034-5.466-.067-1.093-1.766-1.093-1.716 0 .219 3.717 1.01 7.132-3.953 7.569-2.96.269-7.687 1.043-9.958-1.245-.774-.79-1.985.42-1.211 1.211 2.977 3.011 8.932 2.305 12.717 1.565 1.632-.32 2.658-.96 3.297-1.834 1.783 2.052 5.534 1.985 7.973 2.035 2.608.05 6.864.337 8.377-2.338.572-.958-.908-1.816-1.463-.857M31.104 44.002c-.639 1.043-2.321 1.447-3.415 1.514-2.842.185-7.485.589-7.653-3.347-.05-1.094-1.75-1.11-1.716 0 .084 1.816.387 3.482 2.17 4.306 2.22 1.042 4.844.891 7.2.74 1.715-.101 3.666-.05 4.659-1.716 0-.017.017-.034.017-.034.269.387.639.707 1.16.976 1.952.976 4.593.841 6.712.892 3.449.1 5.888-1.363 6.41-4.98.15-1.076-1.498-1.547-1.65-.453-.42 2.926-2.152 3.801-4.76 3.717-2.758-.067-6.106.37-7.166-2.81v-.016c.084-1.144.034-2.304-.033-3.263-.068-1.093-1.767-1.11-1.716 0 .05.875.084 1.716 0 2.59-.017.522.034 1.48-.219 1.884M55.68 20.588c1.094 0 1.11-1.715 0-1.715-1.093 0-1.093 1.715 0 1.715m-46.225 0c1.093 0 1.11-1.715 0-1.715-1.094 0-1.094 1.715 0 1.715m35.578 33.069c-.017 1.699-.034 2.775-1.817 3.28-.925.252-1.834.218-2.776.185-2.557-.101-6.426.521-7.014-2.826.117-1.245-.034-2.59-.068-3.633-.033-1.093-1.75-1.11-1.715 0 .05 1.497.235 2.86-.421 4.239-.606 1.295-1.699 1.48-3.045 1.715-1.446.236-3.028.236-4.491.168-2.44-.117-2.86-1.244-3.213-3.347-.185-1.076-1.833-.622-1.648.454.252 1.598.521 3.33 2.085 4.104 1.968.993 5.148.64 7.234.337 1.379-.202 3.347-.538 4.356-1.665 1.649 2.304 5.333 2.052 8.159 2.17 1.38.05 3.263-.017 4.508-.707 1.615-.892 1.53-2.86 1.548-4.491.05-1.093-1.666-1.093-1.683.017M16.083 1.985c4.39 0 8.175-.504 11.741 2.422.841.69 2.07-.504 1.211-1.21C25.015-.084 21.112.27 16.083.286c-1.11 0-1.11 1.698 0 1.698m20.841 2.423c2.927-3.145 8.007-2.54 11.977-2.69 1.093-.034 1.11-1.75 0-1.717-4.508.169-9.84-.403-13.188 3.18-.74.824.47 2.035 1.211 1.227"/></svg>
